public/resources/img/pencil-icon.svg

<?xml version="1.0" encoding="UTF-8" standalone="no"?>
<svg width="19px" height="19px" viewBox="0 0 19 19" version="1.1" xmlns="http://www.w3.org/2000/svg" xmlns:xlink="http://www.w3.org/1999/xlink" xmlns:sketch="http://www.bohemiancoding.com/sketch/ns">
    <!-- Generator: Sketch 3.3.2 (12043) - http://www.bohemiancoding.com/sketch -->
    <title>Pencil Icon</title>
    <desc>Created with Sketch.</desc>
    <defs></defs>
    <g id="Page-1" stroke="none" stroke-width="1" fill="none" fill-rule="evenodd" sketch:type="MSPage">
        <g id="Pencil-Icon" sketch:type="MSArtboardGroup" fill="#47AD66">
            <path d="M1.319,13.6711223 L4.825,17.1761223 L0,18.4951223 L1.319,13.6711223 L1.319,13.6711223 Z M15.711,6.49612229 L5.402,16.8461223 L1.649,13.0931223 L11.999,2.78412229 L15.711,6.49612229 L15.711,6.49612229 Z M18.144,2.33112229 C18.391,2.57812229 18.508,2.88112229 18.494,3.23812229 C18.48,3.59512229 18.336,3.91112229 18.061,4.18612229 L16.206,6.04212229 L12.453,2.28912229 L14.308,0.43412229 C14.583,0.15912229 14.9,0.01512229 15.257,0.00112229003 C15.614,-0.01287771 15.917,0.10412229 16.164,0.35112229 L18.144,2.33112229 L18.144,2.33112229 Z" id="Imported-Layers" sketch:type="MSShapeGroup"></path>
        </g>
    </g>
</svg>

<svg xmlns="http://www.w3.org/2000/svg" width="19" height="19">
  <path fill="#FFFFFF" fill-rule="evenodd" d="M1.32 13.67l3.505 3.506L0 18.496l1.32-4.825zm14.39-7.174L5.403 16.846 1.65 13.093 12 2.783l3.71 3.713zm2.434-4.165c.247.25.364.55.35.91-.014.36-.158.676-.433.95l-1.85 1.856-3.753-3.754 1.85-1.857c.276-.275.593-.42.95-.433.357-.01.66.106.907.35l1.98 1.98z"/>
</svg>
